common/resources/fonts/svg/dollar.svg

<?xml version="1.0" encoding="UTF-8"?>
<svg width="1024px" height="1024px" viewBox="0 0 1024 1024" version="1.1" xmlns="http://www.w3.org/2000/svg" xmlns:xlink="http://www.w3.org/1999/xlink">
    <!-- Generator: Sketch 43.2 (39069) - http://www.bohemiancoding.com/sketch -->
    <title>dollar</title>
    <desc>Created with Sketch.</desc>
    <defs></defs>
    <g id="Page-1" stroke="none" stroke-width="1" fill="none" fill-rule="evenodd">
        <g id="dollar" fill-rule="nonzero" fill="#000000">
            <path d="M491.299476,774.556729 C547.700924,774.556729 587.301941,765.556498 610.102526,747.556036 C632.903112,729.555574 644.303404,706.754988 644.303404,678.754269 C644.303404,658.153741 639.303276,640.553289 629.503024,625.952914 C619.502768,611.352539 606.302429,598.352205 589.902008,587.351923 C573.501587,576.35164 554.301094,566.551389 532.700539,557.751163 C511.099985,548.950937 488.899415,540.550721 466.098829,532.350511 C444.098265,524.350306 422.297705,515.350074 400.69715,505.349818 C379.096596,495.349561 359.896103,483.349253 342.895666,468.948883 C326.095235,454.548514 312.294881,437.348072 301.694609,417.347559 C291.094337,397.14704 285.694198,372.346403 285.694198,343.145654 C285.694198,291.144319 301.294598,248.34322 332.495399,214.942362 C363.6962,181.541505 408.897361,160.540966 468.298886,151.74074 L468.298886,25.5375 L559.701232,25.5375 L559.701232,148.740663 C591.902059,150.140699 622.102834,154.340807 649.903548,160.940976 C677.704262,167.541146 699.704826,173.741305 715.905242,179.741459 L694.904703,265.543661 C677.304251,258.943492 655.303687,252.143317 628.903009,245.143138 C602.502331,238.142958 569.501484,234.742871 529.900467,234.742871 C485.899338,234.742871 451.898465,243.143086 428.097854,259.943518 C404.297243,276.743949 392.296935,300.744565 392.296935,331.545356 C392.296935,348.345787 395.697022,362.746157 402.697202,374.346455 C409.697381,386.146758 419.697638,396.547025 432.897977,405.747261 C446.098316,414.947497 461.698716,423.147707 479.699178,430.547897 C497.699641,437.948087 517.700154,445.548283 539.700719,453.748493 C568.301453,464.748775 595.502151,476.149068 621.102809,487.749366 C646.703466,499.549669 669.304046,513.550028 688.704544,530.150454 C708.105042,546.550875 723.705443,566.351384 735.505746,588.951964 C747.306048,611.752549 753.106197,639.153253 753.106197,671.554085 C753.106197,723.555419 737.305792,765.556498 705.904986,797.557319 C674.304174,829.558141 625.702927,849.358649 559.701232,857.55886 L559.701232,999.3625 L468.298886,999.3625 L468.298886,860.758942 C416.897566,859.358906 375.096493,853.558757 342.895666,843.758505 C310.69484,833.958254 286.494219,824.558012 270.293803,815.757787 L297.694506,733.355671 C319.695071,743.555933 346.095749,753.156179 376.896539,761.956405 C407.69733,770.156616 445.898311,774.556729 491.299476,774.556729 L491.299476,774.556729 Z" id="path3774"></path>
        </g>
    </g>
</svg>

<svg width="1024" height="1024" viewBox="0 0 1024 1024">
    <path d="M491.3 774.557c56.4 0 96.002-9 118.803-27.001 22.8-18 34.2-40.801 34.2-68.802 0-20.6-5-38.2-14.8-52.801-10-14.6-23.2-27.6-39.601-38.601-16.4-11-35.6-20.8-57.201-29.6-21.601-8.801-43.802-17.201-66.602-25.401-22-8-43.801-17-65.402-27.001-21.6-10-40.8-22-57.801-36.401-16.8-14.4-30.601-31.6-41.201-51.601-10.6-20.201-16-45.002-16-74.202 0-52.002 15.6-94.803 46.8-128.204 31.201-33.4 76.402-54.401 135.804-63.201V25.537H559.7v123.204c32.201 1.4 62.402 5.6 90.203 12.2 27.8 6.6 49.8 12.8 66.001 18.8l-21 85.803c-17.6-6.6-39.601-13.4-66.002-20.4-26.4-7.001-59.402-10.401-99.003-10.401-44 0-78.002 8.4-101.802 25.2-23.8 16.8-35.801 40.802-35.801 71.602 0 16.8 3.4 31.201 10.4 42.801 7 11.8 17 22.201 30.201 31.401 13.2 9.2 28.8 17.4 46.801 24.8 18 7.401 38.001 15.001 60.002 23.201 28.6 11 55.801 22.401 81.402 34.001 25.6 11.8 48.201 25.801 67.602 42.401 19.4 16.4 35 36.201 46.8 58.802 11.801 22.8 17.601 50.201 17.601 82.602 0 52.001-15.8 94.002-47.201 126.003-31.6 32.001-80.202 51.802-146.204 60.002v141.803h-91.4V860.76c-51.401-1.4-93.203-7.2-125.403-17-32.201-9.8-56.402-19.201-72.602-28.001l27.4-82.402c22.001 10.2 48.402 19.8 79.203 28.6 30.8 8.2 69.001 12.6 114.402 12.6z"/>
</svg>
